X:1
T:Hold Fast
T:Hold Fast
T:Charles Hutchinson Gabriel
T:Frances Jane (Fanny) Crosby, 1902
T:Public Domain Courtesy of the Cyber Hymnal™
T:Public Domain Courtesy of the Cyber Hymnal™
C:Charles Hutchinson Gabriel
Z:Public Domain
Z:Courtesy of the Cyber Hymnal™
%%score ( 1 2 ) ( 3 4 )
L:1/8
Q:1/4=117
M:4/4
K:Eb
V:1 treble 
V:2 treble 
V:3 bass 
V:4 bass 
V:1
 E2 | [EG]3 [B,F] [B,E]>[B,F] [EG]>[EA] | [EB]6 [EG]2 | [DA]2 F2 [EG]3 [B,E] | %4
w: 1.~O|sail- or on a treach- erous|sea, Tho’|rent thy ev- ery|
w: 2.~Hold|fast, be strong and ban- ish|fear, Look|up, be- hold the|
w: 3.~Tho’|surg- es roll, and waves run|high, The|Gos- pel life- boat|
w: 4.~Oh,|sail- or! lift a- gain thine|eyes, Be-|hold with joy and|
w: 5.~Oh,|land of rest from toil and|care, Who|would not long to|
 [B,F]2 [EF]2 [DF]2 [FA]2 | [EG]3 [B,F] [B,E]>[B,F] [EG]>[EA] | [EB]6 G2 | %7
w: sail may be, Tho’|all thy earth- ly hopes are|past, And|
w: har- bor near; A|cry of joy from yon- der|strand, Where|
w: still is nigh; It|can- not from its course be|driv’n, ’Tis|
w: glad sur- prise A|glor- ious morn, that dawns for|thee, Far,|
w: en- ter there, Where|ev- ery throb of pain shall|cease, And|
 [DF]2 [C=A]2 [B,B]3 [Ec] | [DB]2 [E=A]2 [DB]2 ||"^Refrain" [DB]2 | B4- B>A G>B | B6 [EG]2 | %12
w: thou art cling- ing|to the mast.||||
w: loved ones wait to|clasp thy hand.|Hold|fast * a mo- ment|more, Be-|
w: sure to reach the|port of Heav’n.||||
w: far be- yond a|storm- y sea.||||
w: ev- ery sigh be|hushed to peace!||||
 [FA]4- [FA]>[EG] [DF]>[EG] | [FA]2 [Ac]2 [GB]2 [FA]2 | G3 z F (E>G) (G>A) | %15
w: |||
w: hold * a light up-|on the shore; Tho’|scarce a beam * thine *|
w: |||
w: |||
w: |||
 [EB]2 [E_d]2 !fermata![Ec]2 [Ec]2 | [EB]2 [Ad]2 [Ge]3 [FA] | [EG]2 [DF]2 !fermata!E2 |] %18
w: |||
w: eye can see, Thy|Sav- ior comes to|res- cue thee.|
w: |||
w: |||
w: |||
V:2
 E2 | x8 | x8 | x2 F2 x4 | x8 | x8 | x6 (E^C) | x8 | x6 || x2 | (E2 E2 E2) E2 | (E2 E2 E2) x2 | %12
 x8 | x8 | (E2 E2 E2) E2 x | x8 | x8 | x4 E2 |] %18
V:3
 [E,G,]2 | [E,B,]3 [E,A,] [E,G,]>[E,A,] [E,B,]>[E,F,] | [E,G,]6 [E,B,]2 | %3
w: ~|~ ~ ~ ~ ~ ~|~ ~|
 [F,B,]2 [D,B,]2 [E,B,]3 [E,G,] | [D,B,]2 [C,=A,]2 [B,,B,]2 [B,,B,]2 | %5
w: ~ ~ ~ ~|~ ~ ~ ~|
 [E,B,]3 [E,A,] [E,G,]>[E,A,] [E,B,]>[E,F,] | [E,G,]6 B,2 | [F,B,]2 [E,F,]2 [D,F,]3 [E,G,] | %8
w: ~ ~ ~ ~ ~ ~|~ ~|~ ~ ~ ~|
 F,2 [F,,F,]2 [B,,F,]2 || [B,,A,]2 | [E,G,]2 [E,G,]2 [E,G,]2 [E,B,]2 | %11
w: ~ ~ ~|~|~ ~ Hold fast|
 [E,G,]2 [E,G,]2 [E,G,]2 [E,B,]2 | [B,,B,]2 [B,,B,]2 [B,,B,]2 [B,,B,]2 | %13
w: a mo- ment more|~ ~ a light|
 [B,,B,]2 [B,,B,]2 [C,B,]2 [D,B,]2 | [E,B,]2 [E,B,]2 [E,G,]2 [E,B,]2 x | %15
w: up- on * *||
 [E,G,]2 [G,B,]2 !fermata!A,2 A,2 | [G,B,]2 [F,B,]2 [E,B,]3 [A,,C] | %17
w: ||
 [B,,B,]2 [B,,A,]2 !fermata![E,G,]2 |] %18
w: |
V:4
 x2 | x8 | x8 | x8 | x8 | x8 | x6 (E,=E,) | x8 | F,2 x4 || x2 | x8 | x8 | x8 | x8 | x9 | %15
 x4 A,2 A,2 | x8 | x6 |] %18

